logos/codecov.svg

<?xml version="1.0" encoding="UTF-8"?>
<svg width="512px" height="99px" viewBox="0 0 512 99" version="1.1" xmlns="http://www.w3.org/2000/svg" preserveAspectRatio="xMidYMid">
    <title>Codecov</title>
    <g>
        <path d="M163.463969,25.0009418 C170.813605,25.0009418 176.693313,27.4491053 181.59307,32.5086431 L181.91972,32.8350648 L188.452729,26.4698399 L188.289404,26.1434181 C182.409696,19.6149822 173.426808,16.0243426 163.137319,16.0243426 C142.884992,16.0243426 128.022396,30.0604796 128.022396,49.4825762 C128.022396,68.9046729 142.721666,82.94081 162.973994,82.94081 C173.263483,82.94081 182.24637,79.3501702 188.289404,72.6585235 L188.452729,72.3321017 L181.91972,65.9668768 L181.59307,66.2932986 C176.693313,71.3528363 170.650279,73.9642106 163.463969,73.9642106 C148.764699,73.9642106 138.148559,63.6819242 138.148559,49.4825762 C138.148559,35.2832283 148.928025,25.0009418 163.463969,25.0009418 M216.381343,74.4538433 C206.745154,74.4538433 200.04882,67.4357748 200.04882,57.6431211 C200.04882,47.6872564 206.745154,40.8323988 216.381343,40.8323988 C226.017531,40.8323988 232.713865,47.6872564 232.713865,57.6431211 C232.713865,67.5989857 226.017531,74.4538433 216.381343,74.4538433 M216.381343,32.3454321 C201.192096,32.3454321 190.249307,42.9541404 190.249307,57.6431211 C190.249307,72.3321017 201.192096,82.94081 216.381343,82.94081 C231.570588,82.94081 242.513378,72.3321017 242.513378,57.6431211 C242.513378,42.9541404 231.407264,32.3454321 216.381343,32.3454321 M271.911919,74.4538433 C262.275731,74.4538433 255.416071,67.4357748 255.416071,57.4799102 C255.416071,47.5240455 262.112406,40.505977 271.911919,40.505977 C281.548108,40.505977 288.244442,47.5240455 288.244442,57.4799102 C288.244442,67.4357748 281.548108,74.4538433 271.911919,74.4538433 Z M288.244442,39.2002898 C284.161311,34.4671738 278.281603,32.0190104 271.258618,32.0190104 C256.232698,32.0190104 245.779883,42.4645077 245.779883,57.4799102 C245.779883,72.4953126 256.232698,82.94081 271.258618,82.94081 C278.444928,82.94081 284.651286,80.1662245 288.571092,75.2698978 L288.571092,82.2879661 L297.88063,82.2879661 L297.88063,12.7601246 L288.081116,12.7601246 L288.244442,39.2002898 L288.244442,39.2002898 Z M329.239073,40.505977 C337.242009,40.505977 343.285042,45.8919365 344.428319,53.7260596 L314.213153,53.7260596 C315.193104,45.8919365 321.072811,40.505977 329.239073,40.505977 M329.239073,32.3454321 C314.866454,32.3454321 304.576964,42.9541404 304.576964,57.6431211 C304.576964,72.4953126 315.356429,82.94081 331.03565,82.94081 C339.201912,82.94081 345.898246,80.1662245 350.471352,74.943476 L350.634678,74.7802652 L345.244946,68.5782511 L344.918294,68.9046729 C341.488465,72.6585235 336.915359,74.6170543 331.198976,74.6170543 C322.052764,74.6170543 315.356429,69.3943056 314.049827,61.0705499 L353.247881,61.0705499 L353.247881,60.7441281 C353.411207,59.9280736 353.411207,58.7855973 353.411207,57.9695429 C353.574532,42.7909295 343.448368,32.3454321 329.239073,32.3454321 M398.162318,67.5989857 C395.222464,72.0056799 390.649358,74.4538433 384.932975,74.4538433 C374.970136,74.4538433 368.273802,67.5989857 368.273802,57.6431211 C368.273802,47.6872564 375.133462,40.8323988 384.932975,40.8323988 C390.649358,40.8323988 395.222464,43.1173513 398.162318,47.6872564 L398.325644,48.0136782 L405.838604,43.2805622 L405.675278,42.9541404 C401.755473,36.2624936 394.242513,32.3454321 385.0963,32.3454321 C369.743729,32.3454321 358.474289,42.9541404 358.474289,57.6431211 C358.474289,72.3321017 369.743729,82.94081 385.0963,82.94081 C394.242513,82.94081 401.755473,79.0237485 405.675278,72.1688909 L405.838604,71.842469 L398.325644,67.272564 L398.162318,67.5989857 L398.162318,67.5989857 Z M435.237144,74.4538433 C425.600956,74.4538433 418.904621,67.4357748 418.904621,57.6431211 C418.904621,47.6872564 425.600956,40.8323988 435.237144,40.8323988 C444.873332,40.8323988 451.569666,47.6872564 451.569666,57.6431211 C451.569666,67.5989857 444.873332,74.4538433 435.237144,74.4538433 M435.237144,32.3454321 C420.047898,32.3454321 409.105108,42.9541404 409.105108,57.6431211 C409.105108,72.3321017 420.047898,82.94081 435.237144,82.94081 C450.42639,82.94081 461.369181,72.3321017 461.369181,57.6431211 C461.369181,42.9541404 450.263065,32.3454321 435.237144,32.3454321 M502.527137,32.3454321 L485.867964,70.5367818 L469.535442,32.3454321 L459.572603,32.3454321 L480.968207,81.1454899 L481.131533,81.3087007 L490.604396,81.3087007 L512,32.3454321 L502.527137,32.3454321 Z M51.9534583,-1.42108547e-14 C23.3213302,-1.42108547e-14 0,23.0742624 0,51.2248626 L0,51.4556053 L8.77436188,56.531943 L9.00526614,56.531943 C14.5469683,52.840061 21.2431918,51.4556053 27.9394154,52.6093184 C32.5575006,53.5322889 36.9446815,55.6089725 40.4082454,58.8393693 L42.0245752,60.223825 L42.9481923,58.377884 C43.8718093,56.531943 44.7954263,54.9167447 45.7190433,53.3015463 C46.1808519,52.6093184 46.6426604,52.1478331 47.1044689,51.4556053 L48.0280859,50.3018922 L46.8735647,49.3789217 C42.0245752,45.4562971 36.2519688,42.6873855 30.0175537,41.5336724 C24.014043,40.3799593 18.0105322,40.610702 12.46883,42.4566429 C16.6251067,24.2279756 32.7884048,11.3063886 51.9534583,11.3063886 C62.8059586,11.3063886 72.965746,15.4597559 80.5855868,23.0742624 C86.127289,28.3813429 89.8217566,35.0728789 91.4380864,42.4566429 C87.9745228,41.3029298 84.2800544,40.8414446 80.5855868,40.8414446 L79.892874,40.8414446 C78.5074482,40.8414446 77.1220226,41.0721872 75.5056928,41.0721872 L75.2747885,41.0721872 C74.8129801,41.0721872 74.1202673,41.3029298 73.6584588,41.3029298 C72.7348417,41.5336724 72.0421289,41.5336724 71.1185119,41.7644151 L70.4257991,41.9951577 C69.7330863,42.2259003 69.0403736,42.4566429 68.3476608,42.6873855 L68.1167565,42.6873855 C66.5004267,43.1488708 65.1150011,43.8410986 63.4986713,44.5333266 L63.4986713,44.5333266 C62.8059586,44.7640692 62.1132458,45.2255544 61.420533,45.6870397 L61.1896287,45.6870397 C57.7260648,47.7637233 54.4934052,50.3018922 51.9534583,53.5322889 L51.7225541,53.9937742 C51.0298413,54.9167447 50.5680328,55.6089725 50.1062243,56.0704577 C49.6444158,56.531943 49.4135115,57.2241709 48.951703,57.9163988 L48.7207987,58.377884 C48.2589902,59.0701119 48.0280859,59.7623398 47.7971817,60.223825 L47.7971817,60.4545676 C47.1044689,61.8390234 46.4117561,63.4542218 45.9499476,65.0694201 L45.9499476,65.3001628 C44.7954263,68.9920447 44.1027136,72.9146693 44.1027136,77.0680366 L44.1027136,77.5295218 C44.1027136,77.9910071 44.1027136,78.683235 44.1027136,79.1447203 C44.1027136,79.3754629 44.1027136,79.6062055 44.1027136,79.8369479 C44.1027136,80.0676909 44.1027136,80.5291759 44.1027136,80.7599189 L44.1027136,80.990661 L44.1027136,81.4521468 C44.1027136,81.9136319 44.3336178,82.6058599 44.3336178,83.0673449 C45.4881391,88.605168 48.0280859,93.9122482 51.9534583,98.7578433 L52.1843626,98.9885863 L52.4152669,98.7578433 C54.0315967,96.9119023 57.7260648,91.1433371 58.1878734,87.6821971 L58.1878734,87.6821971 L58.1878734,87.6821971 C56.3406393,84.221058 55.4170223,80.298433 55.4170223,76.6065514 C55.4170223,63.6849644 65.5768097,52.840061 78.7383524,52.1478331 L79.6619695,52.1478331 C84.9727673,51.9170905 90.2835655,53.5322889 94.6707467,56.531943 L94.9016507,56.531943 L103.676012,51.4556053 L103.676012,51.4556053 L103.676012,51.2248626 C103.676012,37.6110478 98.3652143,24.6894608 88.4363317,14.9982706 C78.7383524,5.30708037 65.8077139,-1.42108547e-14 51.9534583,-1.42108547e-14" fill="#FF0077"></path>
    </g>
</svg>

<svg preserveAspectRatio="xMidYMid" viewBox="0 0 512 99" xmlns="http://www.w3.org/2000/svg">
  <path fill="#F07" d="M163.464 25c7.35 0 13.23 2.45 18.13 7.509l.326.326 6.533-6.365-.164-.327c-5.88-6.528-14.862-10.119-25.152-10.119-20.252 0-35.115 14.036-35.115 33.459 0 19.422 14.7 33.458 34.952 33.458 10.29 0 19.272-3.59 25.315-10.282l.164-.327-6.533-6.365-.327.326c-4.9 5.06-10.943 7.671-18.129 7.671-14.7 0-25.315-10.282-25.315-24.481 0-14.2 10.779-24.482 25.315-24.482m52.917 49.453c-9.636 0-16.332-7.018-16.332-16.81 0-9.957 6.696-16.812 16.332-16.812 9.637 0 16.333 6.855 16.333 16.811s-6.696 16.81-16.333 16.81m0-42.108c-15.189 0-26.132 10.61-26.132 25.298 0 14.69 10.943 25.298 26.132 25.298 15.19 0 26.132-10.609 26.132-25.298 0-14.689-11.106-25.298-26.132-25.298m55.53 42.109c-9.635 0-16.495-7.018-16.495-16.974s6.696-16.974 16.496-16.974c9.636 0 16.332 7.018 16.332 16.974s-6.696 16.974-16.332 16.974ZM288.245 39.2c-4.083-4.733-9.962-7.181-16.985-7.181-15.026 0-25.48 10.446-25.48 25.46 0 15.016 10.454 25.462 25.48 25.462 7.186 0 13.392-2.775 17.312-7.671v7.018h9.31V12.76h-9.8l.163 26.44Zm40.995 1.306c8.003 0 14.046 5.386 15.19 13.22h-30.216c.98-7.834 6.86-13.22 15.026-13.22m0-8.16c-14.373 0-24.662 10.608-24.662 25.297 0 14.852 10.78 25.298 26.459 25.298 8.166 0 14.862-2.775 19.435-7.998l.164-.163-5.39-6.202-.327.327c-3.43 3.754-8.003 5.712-13.719 5.712-9.146 0-15.843-5.223-17.15-13.546h39.199v-.327c.163-.816.163-1.958.163-2.774.164-15.18-9.963-25.625-24.172-25.625M398.162 67.6c-2.94 4.407-7.513 6.855-13.229 6.855-9.963 0-16.66-6.855-16.66-16.81 0-9.957 6.86-16.812 16.66-16.812 5.716 0 10.29 2.285 13.23 6.855l.163.327 7.513-4.733-.164-.327c-3.92-6.692-11.432-10.609-20.579-10.609-15.352 0-26.622 10.61-26.622 25.298 0 14.69 11.27 25.298 26.622 25.298 9.147 0 16.66-3.917 20.58-10.772l.163-.327-7.513-4.57-.164.327Zm37.075 6.855c-9.636 0-16.332-7.018-16.332-16.81 0-9.957 6.696-16.812 16.332-16.812 9.636 0 16.333 6.855 16.333 16.811s-6.697 16.81-16.333 16.81m0-42.108c-15.19 0-26.132 10.61-26.132 25.298 0 14.69 10.943 25.298 26.132 25.298 15.19 0 26.132-10.609 26.132-25.298 0-14.689-11.106-25.298-26.132-25.298m67.29 0-16.659 38.192-16.333-38.192h-9.962l21.395 48.8.164.164h9.472L512 32.345h-9.473ZM51.953 0C23.321 0 0 23.074 0 51.225v.23l8.774 5.077h.231c5.542-3.692 12.238-5.076 18.934-3.923 4.619.923 9.006 3 12.47 6.23l1.616 1.385.923-1.846c.924-1.846 1.847-3.461 2.771-5.076.462-.693.924-1.154 1.385-1.846l.924-1.154-1.154-.923c-4.85-3.923-10.622-6.692-16.856-7.845-6.004-1.154-12.007-.923-17.55.923 4.157-18.229 20.32-31.15 39.485-31.15 10.853 0 21.013 4.153 28.633 11.767 5.541 5.307 9.236 11.999 10.852 19.383-3.463-1.154-7.158-1.616-10.852-1.616h-.693c-1.386 0-2.771.231-4.387.231h-.231c-.462 0-1.155.23-1.617.23-.923.232-1.616.232-2.54.462l-.692.231-2.078.692h-.231c-1.617.462-3.002 1.154-4.618 1.846-.693.231-1.386.693-2.078 1.154h-.231c-3.464 2.077-6.697 4.615-9.237 7.845l-.23.462c-.693.923-1.155 1.615-1.617 2.076-.462.462-.692 1.154-1.154 1.846l-.231.462c-.462.692-.693 1.384-.924 1.846v.23c-.693 1.385-1.385 3-1.847 4.615v.231c-1.155 3.692-1.847 7.615-1.847 11.768v4.384c0 .462.23 1.154.23 1.615 1.155 5.538 3.695 10.845 7.62 15.69l.231.232.231-.231c1.617-1.846 5.311-7.615 5.773-11.076a23.853 23.853 0 0 1-2.771-11.075c0-12.922 10.16-23.767 23.321-24.46h.924c5.31-.23 10.622 1.385 15.009 4.385h.23l8.775-5.076v-.231c0-13.614-5.31-26.536-15.24-36.227C78.738 5.308 65.808 0 51.953 0"/>
</svg>
